X: 35656
T: Sailor's
R: hornpipe
M: 4/4
K: Amajor
cd|ecea fagf|ecea fagf|1 efec dedB|cdcA B2:|2 gbge faf^d|e2 g2 e2||
|:cB|ABcd efga|f2 B2 B2 B^A|Bc^de fgab|g2 e2 e2 cd|
ecag fedc|dBba gfed|cecA BdBG|A2 c2 A2:|

